X:3591
T:Cruel Father, The
T:Kilfodda Reel, The
T:Culfadda Reel, The
C:Larry Redican (1908-1975)
R:reel
H:Originally in F, #783.
Z:id:hn-reel-280
M:C|
K:G
BedB AdBA|GBAG EAGE|DB,~B,2 DEGA|BG~G2 ABBA|
BedB AdBA|GBAG EAGE|DB,~B,2 DEGA|1 BGAF ~G3A:|2 BGAF ~G3B||
|:~d3B cBAB|~G3B AGEG|DG~G2 eGdG|cBAG EAAB|
~c3e dBAB|~e3f gdBG|GAGE DGBe|1 dBAB ~G3B:|2 dBAB ~G3A||


